X:1
T:Wiwallij Dröm
T:Knut Håkanson (1887-1929)
T:Text: Lars Wiwallius (1605-1669)
T:Wiwallij Dröm
T:Op 36 nr 3
%%score [ 1 2 3 4 ]
L:1/8
Q:1/4=90
M:4/4
K:C
V:1 treble nm="S"
V:2 treble nm="A"
V:3 treble-8 nm="T"
V:4 bass nm="B"
V:1
"^Andante"!mp! A2 | e2 (de) c2 B2 | c3 d e2 d2- | d2 Bc A2 (ed) | c6 d2 | B2 z2 z2 A2 | %6
w: Jagh|hör- de * fo- gell|nech- ter- gal Siun-|* ga een qväll i *|een grön|daal, Een|
w: Jagh|sat- te migh nidh på|een grön äng, Un-|* der een lind gior- de|iagh min|säng, Strax|
 c2 (AB) G2 B2 | e2 (dc) BA (c2 | ^F2) (GA) B2 G2 | (A3 G d2) c2 | d4 D2 z2 | %11
w: liuf- ligh * sång om|iung- frur * al- la. Then|klang hör- des öff- ver|bergh * * och|daa- lar,|
w: iagh i een djup sömpn|månd- he * fal- la, Vidh|* then * brunn och|vat- * * tu-|käl- la,|
 z2!p! A2"^poco fluente" B2 c2 | B4 z4 | z2 e2 d2 c2 | d4 z2 f2 | %15
w: Jagh gick mig|til,|öd- mjuk och|still At|
w: Ther Ve- nus|skiön|och hen- nes|son Pläg-|
"^string. e cresc." (e2 e)e c2 c2 | d2 d2 B2 d2 | (ff) e2 c2 c2 | e3 d B2 B2 | (d2 cd) B2 d2 | %20
w: hö- * ra then mu-|sik och speel, Then|ljuf- li- ga klang och|fog- le- sång som|hör- * * des medh|
w: ha kom- ma nidh aff|him- mels thron, Alt|vidh * then brunn een|mor- gon- stund Stad-|fäs- * * tes, stad-|
 (e2 (de)) c2 e2 |!f!"^a tempo" (g8-"^a tempo""^a tempo""^a tempo" | g2 e2) c2 B2 | A2 (cB) G4 | %24
w: stämp- mor * mång, som|hör-|* * des med|stämp- mor * mång,|
w: fäs- * * tes all|kiär-|* * leeks, all|kiär- leeks för- bundh,|
"^rit.""^rit.""^rit.""^rit." z2"^dim." A2 (d4 | (^c2 B4)) B2 |!p! !fermata!A6 z2 |] %27
w: med stämp-|* * mor|mång.|
w: all kiär-|leeks * för-|bundh.|
V:2
 z2 | z4 z2!mp! E2 | A2 (AB) G2 ^F2 | G3 ^F E2 G2 | E2 ^F2 G2 A2 | G2 z2 z4 | z4 z2 E2 | %7
w: |Jagh|hör- de * fo- gell|nech- ter- gal Siun-|ga i een grön|daal,|Een|
w: |Jagh|sat- te migh nidh på|een grön äng, ther|gior- de iagh min|säng,|Strax|
 G2 (^FG) D2 E2 | A2 (G^F) ED (E2 | C2) (DE) ^F2 G2 | D2 (E^F) G4 | %11
w: liuf- ligh * sång om|iung- frur * al- la. Then|klang hör- des öff- ver|bergh och * daa-|
w: iagh i een djup sömpn|månd- he * fal- la, Vidh|* then * brunn och|vat- tu- * käl-|
 !breath!^F2!p! F2"^poco fluente" G2 A2 | G4 z4 | z2 G2 !courtesy!=F2 E2 | F4 z2 A2 | %15
w: lar, Jagh gick mig|til,|öd- mjuk och|still At|
w: la, Ther Ve- nus|skiön|och hen- nes|son Pläg-|
"^string. e cresc." (G2 G)G E2 E2 | ^F2 F2 D2 G2 | (AA) G2 F2 F2 | G3 F E2 G2 | (^F2 ED) G2 B2 | %20
w: hö- * ra then mu-|sik och speel, Then|ljuf- li- ga klang och|fog- le- sång som|hör- * * des medh|
w: ha kom- ma nidh aff|him- mels thron, Alt|vidh * then brunn een|mor- gon- stund Stad-|fäs- * * tes, stad-|
 (^G2 (^FE)) A2 z2 | z2!f! (B2 c2 d2) | (e2 c2) G2 G2 | F2 (DD) E2 G2 | ^F6"^dim." F2 | %25
w: stämp- mor * mång,|som * *|hör- * des med|stämp- mor * mång, med|stämp- mor,|
w: fäs- * * tes|all * *|kiär- * leeks, all|kiär- leeks för- bundh, all|kiär- leeks,|
 (E4 E2) E2 |!p! !fermata!^C6 z2 |] %27
w: stämp- * mor|mång.|
w: kiär- leeks för-|bundh.|
V:3
 z2 | z8 | z4 z2!mp! A2 | e2 (de) c2 B2 | c3 d e2 d2- | d2 Bc A2 (ed) | c3 d B2 z2 | z4 z2 A2 | %8
w: ||Jagh|hör- de * fo- gell|nech- ter- gal Siun-|* ga een qväll i *|een grön daal,|Een|
w: ||Jagh|sat- te migh nidh på|een grön äng, Un-|* der een lind gior- de|iagh min säng,|Strax|
 c2 (Bc) G2 B2 | e2 (dc) BA (c2 | ^F2) (GA) B2 G2 | A2 (AG) (d2 c2) | %12
w: liuf- ligh * sång om|iung- frur * al- la. Then|klang hör- des öff- ver|bergh och * daa- *|
w: iagh i een djup sömpn|månd- he * fal- la, Vidh|* then * brunn och|vat- tu- * käl- *|
 !breath!d2!p!"^poco fluente" B2 c2 d2 | e4 z4 | z2 d2 c2 B2 |"^string. e cresc." BBBB c2 c2 | %16
w: lar, Jagh gick mig|til,|öd- mjuk och|still At hö- ra then mu-|
w: la, Ther Ve- nus|skiön|och hen- nes|son Plä kom- ma nidh aff|
 A2 A2 B2 B2 | (dd) B2 A2 A2 | c3 A G2 z2 | z A (GA) B2 z2 | z B (AB) c2 z2 | z2!f! g2 g4- | %22
w: sik och speel, Then|ljuf- li- ga klang och|fog- le- sång|som hör- * des|medh stämp- mor mång,|som hör-|
w: him- mels thron, Alt|vidh * then brunn een|mor- gon- stund|Stad- fäs- * tes,|stad- fäs- * tes|all kiär-|
 g4 e2 e2 | c2 (AA) B2 G2 | A6"^dim." A2 | A4 (^G2 G2) |!p! !fermata!E6 z2 |] %27
w: * des med|stämp- mor * mång, med|stämp- mor,|stämp- mor *|mång.|
w: * leeks, all|kiär- leeks för- bundh, all|kiär- leeks,|kiär- leeks för-|bundh.|
V:4
 z2 | z8 | z8 | z4 z2!mp! E,2 | A,2 (A,B,) G,2 ^F,2 | G,6 ^F,2 | E,6 z2 | z8 | z4 z2 E,2 | %9
w: |||Jagh|hör- de * fo- gell|nech- ter-|gal||Een|
w: |||Jagh|sat- te migh nidh på|een grön|äng,||Strax|
 G,2 (^F,G,) D,2 E,2 | A,4 (G,2 E,2) | D,4 D,2 z2 | z2"^poco fluente"!p! G,,2 A,,2 B,,2 | C,4 z4 | %14
w: liuf- ligh * sång om|iung- frur *|al- la.|Jagh gick mig|til,|
w: iagh i * een djup|sömpn månd- he|fal- la,|Ther Ve- nus|skiön|
 z2 F,2 E,2 D,2 |"^string. e cresc." E,E,E,E, A,2 A,2 | D,2 D,2 G,2 G,2 | (D,D,) E,2 F,2 F,2 | %18
w: öd- mjuk och|still At hö- ra then mu-|sik och speel, Then|ljuf- li- ga klang och|
w: och hen- nes|son Plä kom- ma nidh aff|him- mels thron, Alt|vidh * then brunn een|
 C,3 D, E,2 z2 | z D, (E,^F,) G,2 z2 | z E, (^F,^G,) A,2 z2 | z2!f! (!courtesy!=G,2 A,2 B,2) | %22
w: fog- le- sång|som hör- * des|medh stämp- mor mång,|som * *|
w: mor- gon- stund|Stad- fäs- * tes,|stad- fäs- * tes|all * *|
 C4 C,2 E,2 | F,2 (F,F,) E,2 E,2 | D,6"^dim." D,2 | E,4 (E,2 E,2) |!p! !fermata!A,,6 z2 |] %27
w: hör- des med|stämp- mor * mång, med|stämp- mor,|stämp- mor *|mång.|
w: kiär- leeks, all|kiär- leeks för- bundh, all|kiär- leeks,|kiär- leeks för-|bundh,|

